X: 611
T: Goodnight Waltz
B: jims roots
M:3/4
L:1/8
Q: 1/4=100
K:C
V:1 
ef | "C"g4 ge | a4 ae |  ga ge cA | G3 A GF | EF GA cd | ea ge cA | "G"[D6B6] | [F4B4] a2 |
a3^g a2 | b4 b2 | ab af dc | B4 BA | G2B2d2 | f2a2 ^g2 | "C"=g2a2 ga | g3 ef2 |
g4 ge | a4 ae | ga ge cA | G6 | EF GA cd | [G6e6 | B2d2c2 | "F"[A6A6] |
c4 [c2a2] | [c4a4]^d2 | "C"ea ge cA | G2 ^F2 G2 | [G6e6] | "G"[F6d6] | "C"c4 B2 | "C7"_B6 ||
C2 | "F"CD FG AB | c2d3^c | d6 | c6 | A,2 C2F2 | Ad cA FD | "C"[G,3E3] [CE][C2E2] | [B,4E4]C2 |
C2E2G2 | B2c2f2 | e6 | d6 | c2d2c2 | =B2c2G2 | "F"A2 fg fe | dc AG FD |
CD FG AB | c2 d3^c | d6 | c6 | A,2C2F2 | [C6A6] | E2G2F2 | "Bb"[D6F6] |
V:D6F6 
 | "Bb7"[D4G4]^G2 | "F"Ad cA FD | C2=B,2C2 | [C6A6] | "C"[B,6G6] | "F"[A,3F3][A,E] [A,F]>[A,G] | [A,4F4] ||
% abcbook-tune_id 6298c25d7ead03c162f06561


% abcbook-boost 0
% abcbook-tablature 
% abcbook-transpose 
% abcbook-lastupdated 1654178398355
% abcbook-soundfonts 
% abcbook-repeats 1


